flaticon/files-and-folders/files-6.svg

<svg xmlns="http://www.w3.org/2000/svg" width="32" height="32" viewBox="0 0 24 24">
    <path d="M 20.792969 5.117188 C 20.769531 5 20.707031 4.90625 20.609375 4.851562 L 15.949219 0.191406 C 15.894531 0.09375 15.800781 0.0273438 15.683594 0.0078125 C 15.648438 0 15.613281 0 15.578125 0 L 4.398438 0 C 3.71875 0 3.199219 0.523438 3.199219 1.203125 L 3.199219 22.800781 C 3.199219 23.480469 3.71875 24 4.398438 24 L 19.597656 24 C 20.277344 24 20.796875 23.480469 20.796875 22.800781 L 20.796875 5.222656 C 20.800781 5.1875 20.800781 5.152344 20.792969 5.117188 Z M 19.4375 4.800781 L 16.398438 4.800781 C 16.160156 4.800781 16 4.640625 16 4.402344 L 16 1.363281 Z M 20 22.800781 C 20 23.039062 19.839844 23.199219 19.597656 23.199219 L 4.398438 23.199219 C 4.160156 23.199219 4 23.039062 4 22.800781 L 4 1.203125 C 4 1 4.160156 0.800781 4.398438 0.800781 L 15.199219 0.800781 L 15.199219 4.402344 C 15.199219 5.082031 15.71875 5.601562 16.398438 5.601562 L 20 5.601562 Z M 20 22.800781"/>
    <path d="M 15.25 8.800781 L 13.546875 8.800781 C 13.371094 8.113281 12.742188 7.601562 12 7.601562 C 11.257812 7.601562 10.628906 8.113281 10.449219 8.800781 L 8.75 8.800781 C 8.570312 8.113281 7.941406 7.601562 7.199219 7.601562 C 6.320312 7.601562 5.601562 8.320312 5.601562 9.199219 C 5.601562 9.941406 6.113281 10.570312 6.800781 10.75 L 6.800781 12.453125 C 6.113281 12.628906 5.601562 13.257812 5.601562 14 C 5.601562 14.878906 6.320312 15.601562 7.199219 15.601562 C 7.941406 15.601562 8.570312 15.089844 8.75 14.402344 L 10.449219 14.402344 C 10.628906 15.089844 11.257812 15.601562 12 15.601562 C 12.742188 15.601562 13.371094 15.089844 13.546875 14.402344 L 15.25 14.402344 C 15.394531 14.960938 15.839844 15.402344 16.398438 15.550781 L 16.398438 17.25 C 15.839844 17.398438 15.394531 17.839844 15.25 18.398438 L 13.546875 18.398438 C 13.371094 17.710938 12.742188 17.199219 12 17.199219 C 11.257812 17.199219 10.628906 17.710938 10.449219 18.398438 L 8.75 18.398438 C 8.570312 17.710938 7.941406 17.199219 7.199219 17.199219 C 6.320312 17.199219 5.601562 17.921875 5.601562 18.800781 C 5.601562 19.679688 6.320312 20.398438 7.199219 20.398438 C 7.941406 20.398438 8.570312 19.886719 8.75 19.199219 L 10.449219 19.199219 C 10.628906 19.886719 11.257812 20.398438 12 20.398438 C 12.742188 20.398438 13.371094 19.886719 13.546875 19.199219 L 15.25 19.199219 C 15.429688 19.886719 16.058594 20.398438 16.800781 20.398438 C 17.679688 20.398438 18.398438 19.679688 18.398438 18.800781 C 18.398438 18.058594 17.886719 17.429688 17.199219 17.25 L 17.199219 15.550781 C 17.886719 15.371094 18.398438 14.742188 18.398438 14 C 18.398438 13.121094 17.679688 12.402344 16.800781 12.402344 C 16.058594 12.402344 15.429688 12.914062 15.25 13.601562 L 13.546875 13.601562 C 13.371094 12.914062 12.742188 12.402344 12 12.402344 C 11.257812 12.402344 10.628906 12.914062 10.449219 13.601562 L 8.75 13.601562 C 8.601562 13.039062 8.160156 12.597656 7.597656 12.453125 L 7.597656 10.75 C 8.160156 10.605469 8.601562 10.160156 8.75 9.601562 L 10.449219 9.601562 C 10.628906 10.289062 11.257812 10.800781 12 10.800781 C 12.742188 10.800781 13.371094 10.289062 13.546875 9.601562 L 15.25 9.601562 C 15.429688 10.289062 16.058594 10.800781 16.800781 10.800781 C 17.679688 10.800781 18.398438 10.082031 18.398438 9.199219 C 18.398438 8.320312 17.679688 7.601562 16.800781 7.601562 C 16.058594 7.601562 15.429688 8.113281 15.25 8.800781 Z M 7.199219 19.601562 C 6.757812 19.601562 6.398438 19.242188 6.398438 18.800781 C 6.398438 18.359375 6.757812 18 7.199219 18 C 7.640625 18 8 18.359375 8 18.800781 C 8 19.242188 7.640625 19.601562 7.199219 19.601562 Z M 12 19.601562 C 11.558594 19.601562 11.199219 19.242188 11.199219 18.800781 C 11.199219 18.359375 11.558594 18 12 18 C 12.4375 18 12.800781 18.359375 12.800781 18.800781 C 12.800781 19.242188 12.4375 19.601562 12 19.601562 Z M 17.597656 18.800781 C 17.597656 19.242188 17.238281 19.601562 16.796875 19.601562 C 16.359375 19.601562 16 19.242188 16 18.800781 C 16 18.359375 16.359375 18 16.796875 18 C 17.238281 18 17.597656 18.359375 17.597656 18.800781 Z M 16.800781 13.199219 C 17.238281 13.199219 17.597656 13.5625 17.597656 14 C 17.597656 14.441406 17.238281 14.800781 16.800781 14.800781 C 16.359375 14.800781 16 14.441406 16 14 C 16 13.5625 16.359375 13.199219 16.800781 13.199219 Z M 12 13.199219 C 12.4375 13.199219 12.800781 13.5625 12.800781 14 C 12.800781 14.441406 12.4375 14.800781 12 14.800781 C 11.558594 14.800781 11.199219 14.441406 11.199219 14 C 11.199219 13.5625 11.558594 13.199219 12 13.199219 Z M 8 14 C 8 14.441406 7.640625 14.800781 7.199219 14.800781 C 6.757812 14.800781 6.398438 14.441406 6.398438 14 C 6.398438 13.5625 6.757812 13.199219 7.199219 13.199219 C 7.640625 13.199219 8 13.5625 8 14 Z M 7.199219 10 C 6.757812 10 6.398438 9.640625 6.398438 9.199219 C 6.398438 8.761719 6.757812 8.402344 7.199219 8.402344 C 7.640625 8.402344 8 8.761719 8 9.199219 C 8 9.640625 7.640625 10 7.199219 10 Z M 12 10 C 11.558594 10 11.199219 9.640625 11.199219 9.199219 C 11.199219 8.761719 11.558594 8.402344 12 8.402344 C 12.4375 8.402344 12.800781 8.761719 12.800781 9.199219 C 12.800781 9.640625 12.4375 10 12 10 Z M 16.800781 8.402344 C 17.238281 8.402344 17.597656 8.761719 17.597656 9.199219 C 17.597656 9.640625 17.238281 10 16.800781 10 C 16.359375 10 16 9.640625 16 9.199219 C 16 8.761719 16.359375 8.402344 16.800781 8.402344 Z M 16.800781 8.402344"/>
</svg>

<svg xmlns="http://www.w3.org/2000/svg" width="32" height="32" viewBox="0 0 24 24">
    <path d="M20.793 5.117a.378.378 0 0 0-.184-.265L15.95.192a.367.367 0 0 0-.265-.184C15.648 0 15.614 0 15.578 0H4.398C3.718 0 3.2.523 3.2 1.203v21.598c0 .68.52 1.199 1.2 1.199h15.199c.68 0 1.199-.52 1.199-1.2V5.224a.32.32 0 0 0-.004-.106zm-1.355-.316h-3.04c-.238 0-.398-.16-.398-.399V1.363zm.562 18c0 .238-.16.398-.402.398h-15.2c-.238 0-.398-.16-.398-.398V1.203a.4.4 0 0 1 .398-.402H15.2v3.601c0 .68.52 1.2 1.2 1.2H20zm0 0"/>
    <path d="M15.25 8.8h-1.703A1.601 1.601 0 0 0 12 7.603c-.742 0-1.371.511-1.55 1.199h-1.7A1.609 1.609 0 0 0 7.2 7.6c-.88 0-1.598.72-1.598 1.598 0 .742.511 1.371 1.199 1.551v1.703c-.688.176-1.2.805-1.2 1.547 0 .879.72 1.602 1.598 1.602.742 0 1.371-.512 1.551-1.2h1.7c.179.688.808 1.2 1.55 1.2s1.371-.512 1.547-1.2h1.703c.145.559.59 1 1.148 1.149v1.699a1.618 1.618 0 0 0-1.148 1.148h-1.703A1.601 1.601 0 0 0 12 17.2c-.742 0-1.371.512-1.55 1.2h-1.7a1.609 1.609 0 0 0-1.55-1.2c-.88 0-1.598.723-1.598 1.602 0 .879.718 1.597 1.597 1.597.742 0 1.371-.511 1.551-1.199h1.7c.179.688.808 1.2 1.55 1.2s1.371-.512 1.547-1.2h1.703c.18.688.809 1.2 1.55 1.2.88 0 1.598-.72 1.598-1.598 0-.742-.511-1.371-1.199-1.551v-1.7c.688-.179 1.2-.808 1.2-1.55 0-.879-.72-1.598-1.598-1.598-.742 0-1.371.512-1.551 1.2h-1.703a1.601 1.601 0 0 0-1.547-1.2c-.742 0-1.371.512-1.55 1.2h-1.7a1.61 1.61 0 0 0-1.152-1.149V10.75A1.616 1.616 0 0 0 8.75 9.602h1.7c.179.687.808 1.199 1.55 1.199s1.371-.512 1.547-1.2h1.703c.18.688.809 1.2 1.55 1.2.88 0 1.598-.719 1.598-1.602 0-.879-.718-1.597-1.597-1.597-.742 0-1.371.511-1.551 1.199zM7.2 19.603A.802.802 0 0 1 7.2 18a.802.802 0 0 1 0 1.602zm4.8 0A.802.802 0 0 1 12 18c.438 0 .8.36.8.8 0 .442-.363.802-.8.802zm5.598-.801c0 .441-.36.8-.801.8a.801.801 0 0 1 0-1.601c.441 0 .8.36.8.8zm-.797-5.602a.801.801 0 0 1 0 1.602c-.442 0-.801-.36-.801-.801 0-.438.36-.8.8-.8zM12 13.2c.438 0 .8.364.8.801 0 .441-.363.8-.8.8-.441 0-.8-.359-.8-.8 0-.438.359-.8.8-.8zM8 14a.802.802 0 0 1-1.602 0c0-.438.36-.8.801-.8.442 0 .801.363.801.8zm-.8-4c-.442 0-.802-.36-.802-.8A.801.801 0 0 1 8 9.2c0 .44-.36.8-.8.8zm4.8 0c-.441 0-.8-.36-.8-.8a.801.801 0 0 1 1.6 0c0 .44-.363.8-.8.8zm4.8-1.598a.8.8 0 0 1 .798.797c0 .442-.36.801-.797.801-.442 0-.801-.36-.801-.8 0-.438.36-.798.8-.798zm0 0"/>
</svg>
